X: 11482
T: CARNIVAL DI VENEZZA
P: Quadrille.
Q: "Allegro."
%R: jig
B: W. Hamilton "Universal Tune-Book" Vol. 1 Glasgow 1844 p.148 #2
S: http://imslp.org/wiki/Hamilton's_Universal_Tune-Book_(Various)
Z: 2016 John Chambers <jc:trillian.mit.edu>
M: 6/8
L: 1/8
K: G
% - - - - - - - - - - - - - - - - - - - - - - - - -
d |\
e2d c2B | d2c A3 | B2c e2d | cBA G2d |\
gfe dcB | d2c A3 | B2c e2d | G3 "^Fin."z2 H:|\
d |\
dcB BAG | F2A e2d | ^c2d =c2d | B3 G2d |
dcB BAG | F2A e2d | ^c2d d=cA | G3 "^D.C."z2 |]\
G |\
c2d e2=f | g3 a2g | f2g =f2g | e3 c2G |\
c2d e2f | g3 a2g | ^f2g g=fd | c3 "^D.C."z2 |]
% - - - - - - - - - - - - - - - - - - - - - - - - -

%%sep 1 1 500
%%sep 1 1 500

